X: 28518
T: Munster Cloak, The
R: waltz
M: 3/4
K: Gmajor
G3 A (3BAG|A2 A>B c>A|G2 G>A B>d|(3cdc (3ABA (3FGF|
G2 G>A B>G|A2 A>B (3cBA|d3 e f>d|1 c2 A2 F2:|
|:g2 g>a g>f|d2 (3gag a2|(3bc'b (3aba (3gag|f2 (3gag a2|
b2 (3aba g>d|f2 d>e f>d|d>c A>d c>A|1 A2 G2 d2:|

